lib/brands/logos/apple-care.svg

<svg xmlns="http://www.w3.org/2000/svg" fill="none" aria-hidden="true" viewBox="0 0 108 109"><g id="Apple Care"><g id="Group"><path id="Rectangle 1" fill="#F5F5F5" d="M2.70001 8.48157C2.70001 5.49923 5.11767 3.08157 8.10001 3.08157H99.9C102.882 3.08157 105.3 5.49924 105.3 8.48157V100.282C105.3 103.264 102.882 105.682 99.9 105.682H8.10001C5.11767 105.682 2.70001 103.264 2.70001 100.282V8.48157Z"/><g id="svgg"><path id="path0" fill="#CF112B" fill-rule="evenodd" d="M62.7179 20.3363C58.5985 20.9722 55.0068 24.3811 54.0977 28.5179C53.9166 29.3413 53.8335 30.5676 53.9269 31.0347L53.9536 31.1683H54.5199C57.1083 31.1683 59.8936 29.519 61.6116 26.9689C62.8964 25.0618 63.6826 22.3114 63.4577 20.5108L63.4274 20.2671L63.2702 20.2712C63.1837 20.2735 62.9352 20.303 62.7179 20.3363ZM62.4501 31.7088C60.9586 31.7852 59.4247 32.1874 57.1706 33.0926C54.4668 34.1786 54.196 34.1768 51.3139 33.049C48.4445 31.9263 46.8983 31.6767 44.944 32.0202C38.4725 33.158 34.3842 39.1824 34.7902 46.9821C35.0403 51.7866 36.7457 57.0582 39.3418 61.0506C42.6922 66.2032 44.9879 67.9566 47.8791 67.5718C48.7571 67.4549 49.157 67.3287 50.9292 66.6095C52.8221 65.841 54.0259 65.6206 55.6457 65.7453C56.9469 65.8456 57.355 65.9669 59.8425 66.9932C63.2581 68.4027 65.9013 67.3931 68.7405 63.5943C70.8423 60.782 72.1507 58.3812 73.1582 55.4894L73.3008 55.0798L72.7812 54.8112C65.4578 51.0286 64.9133 41.3006 71.7631 36.6205L72.0643 36.4148L71.9001 36.175C69.9894 33.3822 66.0575 31.5238 62.4501 31.7088Z" clip-rule="evenodd"/><g id="Apple Care_2"><path fill="#231F20" d="M24.5485 86.3057L25.3856 83.7121H28.6723L29.5025 86.3057H31.1493L27.9312 76.9398H26.1884L22.9635 86.3057H24.5485ZM27.0667 78.5591L28.3223 82.5182H25.7356L27.0049 78.5591H27.0667Z"/><path fill="#231F20" d="M43.4879 86.4086C44.0506 86.4086 44.5423 86.2737 44.9631 86.0038C45.384 85.7339 45.7133 85.3451 45.9512 84.8374C46.1891 84.3296 46.308 83.7189 46.308 83.0053V82.3535C46.308 81.6307 46.1891 81.0178 45.9512 80.5146C45.7133 80.0069 45.384 79.6203 44.9631 79.355C44.5469 79.0897 44.0666 78.957 43.5222 78.957C43.2798 78.957 43.0511 78.9845 42.8361 79.0394C42.6211 79.0943 42.4244 79.1743 42.246 79.2795C42.0676 79.3802 41.9075 79.5014 41.7657 79.6432C41.6284 79.785 41.5095 79.9428 41.4089 80.1166H41.354V79.0531H39.8719V88.7141H41.3952V85.2971H41.45C41.5781 85.5166 41.7405 85.7111 41.9372 85.8803C42.1385 86.045 42.3695 86.1754 42.6302 86.2714C42.891 86.3629 43.1769 86.4086 43.4879 86.4086ZM43.138 85.153C42.7766 85.153 42.4633 85.0638 42.198 84.8854C41.9372 84.7024 41.7359 84.444 41.5941 84.11C41.4523 83.7715 41.3814 83.3736 41.3814 82.9161V82.4015C41.3814 81.9532 41.45 81.5667 41.5873 81.2419C41.7291 80.9126 41.9304 80.6564 42.1911 80.4734C42.4518 80.2905 42.7583 80.199 43.1105 80.199C43.4582 80.199 43.7532 80.2859 43.9957 80.4597C44.2427 80.6335 44.4325 80.8851 44.5652 81.2145C44.6978 81.5438 44.7642 81.9418 44.7642 82.4084V82.9161C44.7642 83.401 44.6955 83.8104 44.5583 84.1443C44.4211 84.4783 44.229 84.7299 43.9819 84.8991C43.7395 85.0684 43.4582 85.153 43.138 85.153Z"/><path fill="#231F20" d="M47.76 86.3057H49.2833V76.4457H47.76V86.3057Z"/><path fill="#231F20" d="M53.8779 86.4292C54.3262 86.4292 54.7218 86.3698 55.0649 86.2508C55.408 86.1319 55.7007 85.9695 55.9432 85.7637C56.1902 85.5578 56.3869 85.3222 56.5333 85.0569C56.6797 84.7916 56.7803 84.5126 56.8352 84.2198H55.3874C55.3234 84.4257 55.2227 84.6064 55.0855 84.7619C54.9528 84.9128 54.7859 85.0295 54.5846 85.1118C54.3833 85.1896 54.1546 85.2285 53.8985 85.2285C53.3816 85.2285 52.9699 85.0432 52.6634 84.6727C52.3569 84.2976 52.2037 83.8058 52.2037 83.1975V83.0259H56.9175V82.3329C56.9175 81.6468 56.794 81.0498 56.547 80.542C56.3 80.0343 55.9432 79.6386 55.4766 79.355C55.0146 79.0714 54.4611 78.9296 53.8161 78.9296C53.1803 78.9296 52.6291 79.0668 52.1625 79.3413C51.7005 79.6157 51.3414 80.0023 51.0852 80.5009C50.8291 80.9995 50.701 81.5873 50.701 82.2643V82.9985C50.701 83.7121 50.8314 84.325 51.0921 84.8374C51.3528 85.3497 51.7211 85.7431 52.1968 86.0175C52.6725 86.292 53.2329 86.4292 53.8779 86.4292ZM52.2037 81.9624C52.2037 81.9578 52.2037 81.9532 52.2037 81.9487C52.2037 81.6056 52.27 81.2968 52.4026 81.0224C52.5399 80.7433 52.7297 80.5215 52.9721 80.3568C53.2146 80.1921 53.4982 80.1098 53.823 80.1098C54.1478 80.1098 54.4291 80.1921 54.6669 80.3568C54.9094 80.5215 55.0969 80.7433 55.2296 81.0224C55.3622 81.2968 55.4286 81.6056 55.4286 81.9487C55.4286 81.9532 55.4286 81.9578 55.4286 81.9624H52.2037Z"/><path fill="#231F20" d="M60.0339 81.0704C60.0339 80.4346 60.1208 79.8948 60.2946 79.4511C60.4684 79.0074 60.7223 78.6711 61.0562 78.4424C61.3947 78.2137 61.8018 78.0993 62.2776 78.0993C62.6893 78.0993 63.0461 78.184 63.348 78.3532C63.6545 78.5225 63.8923 78.7558 64.0616 79.0531C64.2354 79.3504 64.3246 79.6958 64.3292 80.0892H65.8456C65.8456 80.0709 65.8456 80.0526 65.8456 80.0343C65.8456 80.016 65.8456 80 65.8456 79.9863C65.8456 79.5105 65.7564 79.076 65.578 78.6826C65.3996 78.2846 65.1503 77.9438 64.8301 77.6602C64.5144 77.372 64.1393 77.1502 63.7048 76.9946C63.2702 76.8345 62.7922 76.7545 62.2707 76.7545C61.4656 76.7545 60.7795 76.9283 60.2123 77.276C59.645 77.619 59.2105 78.1131 58.9086 78.7581C58.6112 79.403 58.4626 80.1738 58.4626 81.0704V82.2163C58.4626 83.1037 58.6112 83.8676 58.9086 84.508C59.2105 85.1484 59.645 85.6402 60.2123 85.9832C60.7795 86.3217 61.4656 86.491 62.2707 86.491C62.9614 86.491 63.5744 86.3583 64.1096 86.093C64.6494 85.8277 65.0725 85.4618 65.379 84.9952C65.69 84.5286 65.8456 83.9934 65.8456 83.3896C65.8456 83.3759 65.8456 83.3598 65.8456 83.3415C65.8456 83.3187 65.8456 83.3004 65.8456 83.2867H64.3292C64.3246 83.648 64.2354 83.9705 64.0616 84.2541C63.8923 84.5377 63.6545 84.7596 63.348 84.9197C63.0461 85.0752 62.6893 85.153 62.2776 85.153C61.8018 85.153 61.3947 85.0386 61.0562 84.8099C60.7223 84.5812 60.4684 84.2496 60.2946 83.815C60.1208 83.3759 60.0339 82.8452 60.0339 82.2231V81.0704Z"/><path fill="#231F20" d="M69.6769 86.4155C70.0337 86.4155 70.3425 86.372 70.6032 86.2851C70.8685 86.1936 71.0904 86.0724 71.2688 85.9215C71.4518 85.7705 71.5959 85.6013 71.7011 85.4137H71.756V86.3057H73.2037V81.3654C73.2037 80.8211 73.0802 80.3705 72.8332 80.0137C72.5908 79.6569 72.2568 79.3893 71.8314 79.2109C71.4106 79.0325 70.9303 78.9433 70.3905 78.9433C69.9102 78.9433 69.4939 79.0028 69.1417 79.1217C68.7941 79.2406 68.5059 79.4053 68.2772 79.6157C68.053 79.8216 67.8838 80.0617 67.7694 80.3362C67.6551 80.6107 67.5887 80.9011 67.5704 81.2076H68.9976C69.0159 80.9926 69.08 80.8051 69.1897 80.645C69.2995 80.4803 69.4528 80.3545 69.6495 80.2676C69.8462 80.1761 70.0817 80.1304 70.3562 80.1304C70.7816 80.1304 71.111 80.2424 71.3443 80.4666C71.5821 80.6907 71.7011 81.0086 71.7011 81.4203V82.1133H69.8622C69.0296 82.1133 68.3938 82.3055 67.9547 82.6897C67.5201 83.0694 67.3028 83.5794 67.3028 84.2198C67.3028 84.8968 67.5224 85.432 67.9615 85.8254C68.4007 86.2188 68.9725 86.4155 69.6769 86.4155ZM70.1366 85.2559C69.7981 85.2559 69.4962 85.1644 69.2309 84.9814C68.9656 84.7985 68.833 84.5172 68.833 84.1375C68.833 83.8356 68.9359 83.5908 69.1417 83.4033C69.3521 83.2112 69.6792 83.1151 70.1229 83.1151H71.7011V83.9179C71.7011 84.1787 71.6324 84.4097 71.4952 84.6109C71.358 84.8122 71.1704 84.97 70.9326 85.0844C70.6993 85.1987 70.434 85.2559 70.1366 85.2559Z"/><path fill="#231F20" d="M74.8204 86.3057H76.3643V82.0104C76.3643 81.6856 76.4146 81.3929 76.5152 81.1321C76.6204 80.8714 76.792 80.6656 77.0298 80.5146C77.2677 80.3591 77.5902 80.2813 77.9973 80.2813C78.1254 80.2813 78.2489 80.2859 78.3678 80.295C78.4868 80.3042 78.5805 80.3179 78.6492 80.3362V78.9913C78.576 78.9776 78.4959 78.9685 78.409 78.9639C78.3267 78.9548 78.2352 78.9502 78.1345 78.9502C77.8006 78.9502 77.5147 79.0074 77.2769 79.1217C77.039 79.2315 76.8469 79.3687 76.7005 79.5334C76.5587 79.6981 76.458 79.8559 76.3986 80.0069H76.3437V79.0531H74.8204V86.3057Z"/><path fill="#231F20" d="M35.7929 86.4086C36.3556 86.4086 36.8473 86.2737 37.2681 86.0038C37.689 85.7339 38.0183 85.3451 38.2562 84.8373C38.4941 84.3296 38.613 83.7189 38.613 83.0053V82.3535C38.613 81.6307 38.4941 81.0178 38.2562 80.5146C38.0183 80.0068 37.689 79.6203 37.2681 79.355C36.8519 79.0897 36.3716 78.957 35.8272 78.957C35.5848 78.957 35.3561 78.9845 35.1411 79.0394C34.9261 79.0943 34.7294 79.1743 34.551 79.2795C34.3726 79.3802 34.2125 79.5014 34.0707 79.6432C33.9334 79.785 33.8145 79.9428 33.7139 80.1166H33.659V79.0531H32.1769V88.7141H33.7002V85.2971H33.755C33.8831 85.5166 34.0455 85.711 34.2422 85.8803C34.4435 86.045 34.6745 86.1753 34.9352 86.2714C35.196 86.3629 35.4819 86.4086 35.7929 86.4086ZM35.443 85.153C35.0816 85.153 34.7683 85.0638 34.503 84.8854C34.2422 84.7024 34.0409 84.4439 33.8991 84.11C33.7573 83.7715 33.6864 83.3736 33.6864 82.9161V82.4015C33.6864 81.9532 33.755 81.5667 33.8923 81.2419C34.0341 80.9126 34.2354 80.6564 34.4961 80.4734C34.7568 80.2904 35.0633 80.199 35.4155 80.199C35.7632 80.199 36.0582 80.2859 36.3007 80.4597C36.5477 80.6335 36.7375 80.8851 36.8702 81.2145C37.0028 81.5438 37.0692 81.9418 37.0692 82.4084V82.9161C37.0692 83.401 37.0005 83.8104 36.8633 84.1443C36.7261 84.4783 36.534 84.7298 36.2869 84.8991C36.0445 85.0683 35.7632 85.153 35.443 85.153Z"/><path fill="#231F20" d="M82.0929 86.4292C82.5412 86.4292 82.9369 86.3698 83.2799 86.2508C83.623 86.1319 83.9158 85.9695 84.1582 85.7637C84.4052 85.5578 84.6019 85.3222 84.7483 85.0569C84.8947 84.7916 84.9953 84.5126 85.0502 84.2198H83.6024C83.5384 84.4257 83.4377 84.6064 83.3005 84.7619C83.1679 84.9128 83.0009 85.0295 82.7996 85.1118C82.5984 85.1896 82.3696 85.2285 82.1135 85.2285C81.5966 85.2285 81.1849 85.0432 80.8784 84.6727C80.5719 84.2976 80.4187 83.8058 80.4187 83.1975V83.0259H85.1325V82.3329C85.1325 81.6468 85.009 81.0498 84.762 80.5421C84.515 80.0343 84.1582 79.6386 83.6916 79.355C83.2296 79.0714 82.6761 78.9296 82.0311 78.9296C81.3953 78.9296 80.8441 79.0668 80.3775 79.3413C79.9155 79.6157 79.5564 80.0023 79.3003 80.5009C79.0441 80.9995 78.916 81.5873 78.916 82.2643V82.9985C78.916 83.7121 79.0464 84.325 79.3071 84.8374C79.5679 85.3497 79.9361 85.7431 80.4118 86.0175C80.8876 86.292 81.4479 86.4292 82.0929 86.4292ZM80.4187 81.9624C80.4187 81.9578 80.4187 81.9532 80.4187 81.9487C80.4187 81.6056 80.485 81.2968 80.6177 81.0224C80.7549 80.7433 80.9447 80.5215 81.1872 80.3568C81.4296 80.1921 81.7132 80.1098 82.038 80.1098C82.3628 80.1098 82.6441 80.1921 82.882 80.3568C83.1244 80.5215 83.312 80.7433 83.4446 81.0224C83.5773 81.2968 83.6436 81.6056 83.6436 81.9487C83.6436 81.9532 83.6436 81.9578 83.6436 81.9624H80.4187Z"/></g></g><g id="Union"><path fill="#A2999A" d="M105.135 101.294C105.125 101.284 105.129 101.224 105.145 101.162C105.161 101.099 105.182 101.056 105.192 101.066C105.202 101.076 105.197 101.136 105.182 101.198C105.166 101.261 105.145 101.304 105.135 101.294Z"/><path fill="#A2999A" fill-rule="evenodd" d="M2.76215 101.494C2.75035 101.427 2.72855 101.305 2.71342 101.223C2.69136 101.103 2.69546 101.088 2.73368 101.148C2.76908 101.204 2.83859 101.223 3.00531 101.223H3.22924L3.37134 101.618C4.03003 103.453 5.48746 104.741 7.25167 105.049C7.80315 105.145 100.087 105.147 100.637 105.05C102.405 104.741 103.886 103.411 104.529 101.554L104.629 101.265H104.835C105.02 101.265 105.196 101.346 105.138 101.405C105.126 101.416 105.107 101.481 105.095 101.549C105.011 102.012 104.549 103.001 104.193 103.477C103.969 103.776 103.201 104.557 103.13 104.557C103.102 104.557 103.054 104.587 103.024 104.623C102.995 104.658 102.947 104.677 102.914 104.668C102.923 104.697 102.896 104.747 102.84 104.784C102.778 104.825 102.753 104.835 102.745 104.817C102.74 104.824 102.735 104.83 102.727 104.835C102.703 104.849 102.683 104.846 102.682 104.827C102.681 104.808 102.615 104.719 102.536 104.629C102.615 104.719 102.681 104.821 102.681 104.856C102.681 104.899 102.653 104.884 102.597 104.814L102.511 104.707L102.554 104.824C102.624 105.02 101.608 105.484 100.755 105.646C100.318 105.729 7.83493 105.748 7.23959 105.665C6.81175 105.606 6.11202 105.376 5.68776 105.155C5.35848 104.984 5.24786 104.927 5.24714 104.87C5.24676 104.84 5.27625 104.809 5.3202 104.762C5.3792 104.698 5.42742 104.62 5.42742 104.588C5.42742 104.566 5.43245 104.543 5.43987 104.525C5.43061 104.538 5.42744 104.558 5.42744 104.583C5.42744 104.619 5.36999 104.709 5.29945 104.784C5.17429 104.917 5.14186 104.909 5.2087 104.766C5.168 104.839 5.14262 104.844 5.08242 104.812C5.01091 104.774 4.98122 104.713 5.01316 104.692C4.92 104.691 4.74361 104.587 4.74361 104.529C4.74361 104.497 4.71437 104.472 4.67872 104.472C4.53123 104.472 3.723 103.586 3.44906 103.125C3.13767 102.6 2.82653 101.861 2.76215 101.494ZM5.079 104.71C5.0831 104.718 5.0855 104.728 5.0855 104.738C5.0855 104.764 5.12213 104.75 5.16882 104.706C5.12112 104.745 5.08553 104.758 5.08553 104.734C5.08553 104.725 5.08316 104.717 5.079 104.71ZM5.27432 104.609C5.28696 104.603 5.27935 104.624 5.25503 104.675L5.30458 104.58L5.27432 104.609ZM102.746 104.767C102.757 104.745 102.787 104.728 102.822 104.728C102.865 104.728 102.889 104.71 102.878 104.688C102.877 104.687 102.877 104.686 102.876 104.685L102.875 104.684C102.876 104.685 102.876 104.685 102.876 104.686C102.877 104.686 102.877 104.687 102.878 104.688C102.889 104.71 102.86 104.728 102.812 104.728C102.763 104.728 102.733 104.746 102.746 104.767Z" clip-rule="evenodd"/></g></g></g></svg>

<svg xmlns="http://www.w3.org/2000/svg" fill="none" aria-hidden="true" viewBox="0 0 108 109"><path fill="#F5F5F5" d="M2.7 8.482a5.4 5.4 0 0 1 5.4-5.4h91.8a5.4 5.4 0 0 1 5.4 5.4v91.8a5.4 5.4 0 0 1-5.4 5.4H8.1a5.4 5.4 0 0 1-5.4-5.4v-91.8Z"/><path fill="#CF112B" fill-rule="evenodd" d="M62.718 20.336c-4.12.636-7.711 4.045-8.62 8.182-.181.823-.264 2.05-.171 2.517l.026.133h.567c2.588 0 5.374-1.649 7.092-4.2 1.284-1.906 2.07-4.657 1.846-6.457l-.03-.244-.158.004a6.447 6.447 0 0 0-.552.065ZM62.45 31.71c-1.492.076-3.025.478-5.28 1.384-2.703 1.086-2.974 1.084-5.856-.044-2.87-1.123-4.416-1.372-6.37-1.029-6.472 1.138-10.56 7.162-10.154 14.962.25 4.805 1.956 10.076 4.552 14.069 3.35 5.152 5.646 6.906 8.537 6.52.878-.116 1.278-.242 3.05-.962 1.893-.768 3.097-.988 4.717-.864 1.3.1 1.709.222 4.197 1.248 3.415 1.41 6.058.4 8.897-3.399 2.102-2.812 3.41-5.213 4.418-8.105l.143-.41-.52-.268c-7.323-3.782-7.868-13.51-1.018-18.19l.301-.206-.164-.24c-1.91-2.793-5.843-4.651-9.45-4.466Z" clip-rule="evenodd"/><path fill="#231F20" d="m24.549 86.306.837-2.594h3.286l.83 2.594h1.647l-3.218-9.366h-1.743l-3.224 9.366h1.585Zm2.518-7.747 1.255 3.96h-2.586l1.269-3.96h.062Zm16.421 7.85c.563 0 1.054-.135 1.475-.405.421-.27.75-.659.988-1.167.238-.507.357-1.118.357-1.832v-.651c0-.723-.119-1.336-.357-1.84-.238-.507-.567-.894-.988-1.159-.416-.265-.896-.398-1.44-.398-.243 0-.472.028-.687.082a2.251 2.251 0 0 0-.59.24 2.209 2.209 0 0 0-.48.364 2.42 2.42 0 0 0-.357.474h-.055v-1.064h-1.482v9.661h1.523v-3.417h.055c.128.22.29.414.487.583.202.165.433.295.693.391.261.092.547.138.858.138Zm-.35-1.256c-.361 0-.675-.09-.94-.268a1.758 1.758 0 0 1-.604-.775c-.142-.338-.213-.736-.213-1.194v-.514c0-.449.069-.835.206-1.16.142-.33.343-.586.604-.769a1.56 1.56 0 0 1 .92-.274c.347 0 .642.087.885.26.247.174.436.426.57.755.132.33.198.728.198 1.194v.508c0 .485-.069.894-.206 1.228-.137.334-.329.586-.576.755-.242.17-.524.254-.844.254Zm4.622 1.153h1.523v-9.86H47.76v9.86Zm6.118.124c.448 0 .844-.06 1.187-.18.343-.118.636-.28.878-.486a2.47 2.47 0 0 0 .59-.707c.147-.265.247-.544.302-.837h-1.448a1.469 1.469 0 0 1-.301.542c-.133.15-.3.267-.501.35-.202.078-.43.116-.687.116-.516 0-.928-.185-1.235-.555-.306-.375-.46-.867-.46-1.476v-.171h4.714v-.693c0-.686-.123-1.283-.37-1.791a2.778 2.778 0 0 0-1.07-1.187c-.462-.284-1.016-.425-1.66-.425-.637 0-1.188.137-1.654.411a2.81 2.81 0 0 0-1.078 1.16c-.256.498-.384 1.086-.384 1.763V83c0 .713.13 1.326.391 1.838.26.513.63.906 1.105 1.18.475.275 1.036.412 1.68.412Zm-1.674-4.468v-.013c0-.343.066-.652.199-.927.137-.279.327-.5.57-.665.242-.165.525-.247.85-.247.325 0 .606.082.844.247.242.164.43.386.563.665.132.275.199.584.199.927v.013h-3.225Zm7.83-.892c0-.635.087-1.175.26-1.619.174-.444.428-.78.762-1.009.339-.228.746-.343 1.222-.343.411 0 .768.085 1.07.254.306.17.544.403.714.7.173.297.263.643.267 1.036h1.517v-.103c0-.476-.09-.91-.268-1.303a2.973 2.973 0 0 0-.748-1.023 3.295 3.295 0 0 0-1.125-.665 4.12 4.12 0 0 0-1.434-.24c-.805 0-1.492.173-2.059.521-.567.343-1.002.837-1.303 1.482-.298.645-.446 1.416-.446 2.312v1.146c0 .888.148 1.652.446 2.292.302.64.736 1.132 1.303 1.475.567.339 1.254.508 2.059.508.69 0 1.303-.133 1.839-.398.54-.265.963-.631 1.269-1.098a2.828 2.828 0 0 0 .467-1.605v-.103h-1.517a1.86 1.86 0 0 1-.267.967 1.76 1.76 0 0 1-.714.666c-.302.155-.659.233-1.07.233-.476 0-.883-.114-1.222-.343-.334-.229-.588-.56-.761-.995-.174-.44-.261-.97-.261-1.592V81.07Zm9.643 5.345c.357 0 .665-.043.926-.13.266-.091.487-.213.666-.364.183-.15.327-.32.432-.507h.055v.892h1.448v-4.94c0-.545-.124-.995-.37-1.352a2.213 2.213 0 0 0-1.003-.803c-.42-.178-.9-.268-1.44-.268-.48 0-.897.06-1.25.179a2.409 2.409 0 0 0-.864.494 2.028 2.028 0 0 0-.508.72c-.114.275-.18.565-.199.872h1.428c.018-.215.082-.403.192-.563.11-.165.263-.29.46-.377.196-.092.432-.138.706-.138.426 0 .755.112.988.337.238.224.357.542.357.953v.693h-1.839c-.832 0-1.468.192-1.907.577-.435.38-.652.89-.652 1.53 0 .677.22 1.212.659 1.605.439.394 1.01.59 1.715.59Zm.46-1.16c-.339 0-.64-.09-.906-.274-.265-.182-.398-.464-.398-.843 0-.302.103-.547.309-.735.21-.192.537-.288.98-.288h1.58v.803c0 .26-.07.492-.207.693a1.397 1.397 0 0 1-.562.473 1.786 1.786 0 0 1-.796.172Zm4.683 1.051h1.544V82.01c0-.324.05-.617.151-.878a1.28 1.28 0 0 1 .515-.617c.238-.156.56-.234.967-.234.128 0 .252.005.37.014.12.01.213.023.282.041v-1.345a1.838 1.838 0 0 0-.24-.027 2.488 2.488 0 0 0-.275-.014c-.333 0-.62.057-.857.172-.238.11-.43.247-.576.411a1.696 1.696 0 0 0-.302.474h-.055v-.954H74.82v7.253Zm-39.027.103c.563 0 1.054-.135 1.475-.405.421-.27.75-.659.988-1.167.238-.507.357-1.118.357-1.832v-.651c0-.723-.119-1.336-.357-1.84-.238-.507-.567-.894-.988-1.159-.416-.265-.896-.398-1.44-.398a2.77 2.77 0 0 0-.687.082 2.251 2.251 0 0 0-.59.24 2.209 2.209 0 0 0-.48.364 2.42 2.42 0 0 0-.357.474h-.055v-1.064h-1.482v9.661H33.7v-3.417h.055c.128.22.29.414.487.583.202.165.433.295.693.391.261.092.547.138.858.138Zm-.35-1.256c-.361 0-.675-.09-.94-.268a1.758 1.758 0 0 1-.604-.775c-.142-.338-.213-.736-.213-1.194v-.514c0-.449.069-.835.206-1.16.142-.33.343-.586.604-.769a1.56 1.56 0 0 1 .92-.274c.347 0 .642.087.885.26.247.174.436.426.57.755.132.33.198.728.198 1.194v.508c0 .485-.069.894-.206 1.228-.137.334-.329.586-.576.755-.242.17-.524.254-.844.254Zm46.65 1.277c.448 0 .844-.06 1.187-.18.343-.118.636-.28.878-.486a2.47 2.47 0 0 0 .59-.707c.147-.265.247-.544.302-.837h-1.448a1.468 1.468 0 0 1-.302.542c-.132.15-.3.267-.5.35a1.89 1.89 0 0 1-.686.117c-.517 0-.93-.186-1.236-.556-.306-.375-.46-.867-.46-1.476v-.171h4.714v-.693c0-.686-.123-1.283-.37-1.791a2.778 2.778 0 0 0-1.07-1.187c-.462-.284-1.016-.425-1.66-.425-.637 0-1.188.137-1.654.411a2.808 2.808 0 0 0-1.078 1.16c-.256.498-.384 1.086-.384 1.763V83c0 .713.13 1.326.391 1.838.26.513.63.906 1.105 1.18.476.275 1.036.412 1.68.412Zm-1.674-4.468v-.013c0-.343.066-.652.199-.927.137-.279.327-.5.57-.665.242-.165.525-.247.85-.247.325 0 .606.082.844.247.242.165.43.386.563.665.132.275.199.584.199.927v.013h-3.225Z"/><path fill="#A2999A" d="M105.135 101.294c-.01-.01-.006-.07.01-.132.016-.063.037-.106.047-.096.01.01.005.07-.01.132-.016.063-.037.106-.047.096Z"/><path fill="#A2999A" fill-rule="evenodd" d="M2.762 101.494a40.508 40.508 0 0 0-.049-.271c-.022-.12-.018-.135.02-.075.036.056.106.075.272.075h.224l.142.395c.659 1.835 2.116 3.123 3.88 3.431.552.096 92.836.098 93.386.001 1.768-.309 3.249-1.639 3.892-3.496l.1-.289h.206c.185 0 .361.081.303.14a.43.43 0 0 0-.043.144c-.084.463-.547 1.452-.903 1.928-.223.299-.991 1.08-1.062 1.08-.028 0-.076.03-.106.066-.029.035-.077.054-.11.045.009.029-.018.079-.074.116-.062.041-.087.051-.095.033a.077.077 0 0 1-.018.018c-.024.014-.044.011-.045-.008a.885.885 0 0 0-.146-.198c.079.09.145.192.145.227 0 .043-.028.028-.085-.042l-.085-.107.043.117c.07.196-.946.66-1.799.822-.437.083-92.92.102-93.515.019-.428-.059-1.128-.289-1.552-.51-.33-.171-.44-.228-.44-.285-.001-.03.028-.061.072-.108.06-.064.107-.142.107-.174 0-.022.005-.045.013-.063-.01.013-.013.033-.013.058 0 .036-.057.126-.128.201-.125.133-.157.125-.09-.018-.041.073-.066.078-.127.046-.071-.038-.1-.099-.069-.12-.093-.001-.27-.105-.27-.163 0-.032-.029-.057-.064-.057-.148 0-.956-.886-1.23-1.347-.311-.525-.623-1.264-.687-1.631Zm2.317 3.216a.063.063 0 0 1 .006.028c0 .026.037.012.084-.032-.048.039-.084.052-.084.028a.046.046 0 0 0-.006-.024Zm.195-.101c.013-.006.005.015-.019.066l.05-.095-.03.029Zm97.472.158c.011-.022.041-.039.076-.039.043 0 .067-.018.055-.04l-.001-.003-.001-.001.001.002.001.002c.012.022-.017.04-.065.04-.049 0-.079.018-.066.039Z" clip-rule="evenodd"/></svg>
